src/assets/img/svg/uk.svg

<svg width="20" height="20" viewBox="0 0 20 20" fill="none" xmlns="http://www.w3.org/2000/svg">
<path d="M10 20C15.5228 20 20 15.5228 20 10C20 4.47715 15.5228 0 10 0C4.47715 0 0 4.47715 0 10C0 15.5228 4.47715 20 10 20Z" fill="#F0F0F0"/>
<path d="M2.06718 3.91211C1.28167 4.9341 0.689365 6.11203 0.344482 7.39168H5.54675L2.06718 3.91211Z" fill="#0052B4"/>
<path d="M19.6555 7.39165C19.3106 6.11204 18.7183 4.9341 17.9328 3.91211L14.4533 7.39165H19.6555Z" fill="#0052B4"/>
<path d="M0.344482 12.6094C0.689404 13.889 1.28171 15.0669 2.06718 16.0889L5.54663 12.6094H0.344482Z" fill="#0052B4"/>
<path d="M16.0882 2.06746C15.0662 1.28195 13.8883 0.689648 12.6086 0.344727V5.54695L16.0882 2.06746Z" fill="#0052B4"/>
<path d="M3.9118 17.9326C4.9338 18.7181 6.11173 19.3104 7.39134 19.6553V14.4531L3.9118 17.9326Z" fill="#0052B4"/>
<path d="M7.3913 0.344727C6.11169 0.689648 4.93376 1.28195 3.9118 2.06742L7.3913 5.54691V0.344727Z" fill="#0052B4"/>
<path d="M12.6087 19.6553C13.8883 19.3104 15.0662 18.7181 16.0882 17.9326L12.6087 14.4531V19.6553Z" fill="#0052B4"/>
<path d="M14.4533 12.6094L17.9328 16.0889C18.7183 15.067 19.3106 13.889 19.6555 12.6094H14.4533Z" fill="#0052B4"/>
<path d="M19.9154 8.69566H11.3044H11.3044V0.0846484C10.8774 0.0290625 10.4421 0 10 0C9.55785 0 9.12262 0.0290625 8.69566 0.0846484V8.69559V8.69563H0.0846484C0.0290625 9.12262 0 9.55793 0 10C0 10.4421 0.0290625 10.8774 0.0846484 11.3043H8.69559H8.69563V19.9154C9.12262 19.9709 9.55785 20 10 20C10.4421 20 10.8774 19.971 11.3043 19.9154V11.3044V11.3044H19.9154C19.9709 10.8774 20 10.4421 20 10C20 9.55793 19.9709 9.12262 19.9154 8.69566Z" fill="#CB3D40"/>
<path d="M12.6087 12.6084L17.071 17.0708C17.2763 16.8656 17.4721 16.6511 17.6589 16.4288L13.8385 12.6084H12.6087V12.6084Z" fill="#CB3D40"/>
<path d="M7.39127 12.6084H7.39119L2.92889 17.0707C3.13405 17.2759 3.34854 17.4717 3.57089 17.6585L7.39127 13.838V12.6084Z" fill="#CB3D40"/>
<path d="M7.39128 7.39118V7.3911L2.92894 2.92871C2.7237 3.13387 2.52792 3.34836 2.34113 3.5707L6.16155 7.39114H7.39128V7.39118Z" fill="#CB3D40"/>
<path d="M12.6087 7.39102L17.0711 2.92859C16.8659 2.72336 16.6514 2.52758 16.4291 2.34082L12.6087 6.16125V7.39102Z" fill="#CB3D40"/>
</svg>

<svg width="20" height="20" fill="none" xmlns="http://www.w3.org/2000/svg"><path d="M10 20c5.523 0 10-4.477 10-10S15.523 0 10 0 0 4.477 0 10s4.477 10 10 10z" fill="#F0F0F0"/><path d="M2.067 3.912a9.963 9.963 0 00-1.723 3.48h5.203l-3.48-3.48zM19.655 7.392a9.964 9.964 0 00-1.722-3.48l-3.48 3.48h5.203zM.344 12.61a9.965 9.965 0 001.723 3.479l3.48-3.48H.344zM16.088 2.067a9.964 9.964 0 00-3.48-1.722v5.202l3.48-3.48zM3.912 17.933a9.964 9.964 0 003.48 1.722v-5.202l-3.48 3.48zM7.391.345a9.965 9.965 0 00-3.48 1.722l3.48 3.48V.345zM12.609 19.655a9.964 9.964 0 003.48-1.722l-3.48-3.48v5.202zM14.453 12.61l3.48 3.479a9.963 9.963 0 001.723-3.48h-5.203z" fill="#0052B4"/><path d="M19.915 8.696h-8.61V.085a10.1 10.1 0 00-2.61 0v8.61H.086a10.1 10.1 0 000 2.61h8.61v8.61a10.114 10.114 0 002.61 0v-8.61h8.61a10.115 10.115 0 000-2.61z" fill="#CB3D40"/><path d="M12.609 12.608l4.462 4.463c.205-.205.401-.42.588-.642l-3.82-3.82h-1.23zM7.391 12.608L2.93 17.071c.205.205.42.4.642.587l3.82-3.82v-1.23zM7.391 7.391L2.93 2.93c-.205.205-.401.42-.588.642l3.82 3.82h1.23zM12.609 7.391l4.462-4.462c-.205-.206-.42-.401-.642-.588l-3.82 3.82v1.23z" fill="#CB3D40"/></svg>
